www/assets/icons/no_sim.svg

<svg width="24" height="24" viewBox="0 0 24 24" xmlns="http://www.w3.org/2000/svg" fill='currentColor'><path d="M19.24 4.18994C19.24 3.08994 18.35 2.18994 17.25 2.18994H10.25L7.91 4.52994L19.25 15.8699L19.24 4.18994ZM3.9 3.06994L2.63 4.33994L5.25 6.95994V18.1899C5.25 19.2899 6.15 20.1899 7.25 20.1899H17.26C17.61 20.1899 17.93 20.0899 18.22 19.9299L20.1 21.8099L21.37 20.5399L3.9 3.06994Z"/></svg>

<svg xmlns="http://www.w3.org/2000/svg" width="24" height="24" viewBox="0 0 24 24" fill='currentColor'><path d="M19.24 4.19c0-1.1-.89-2-1.99-2h-7L7.91 4.53l11.34 11.34zM3.9 3.07 2.63 4.34l2.62 2.62v11.23c0 1.1.9 2 2 2h10.01c.35 0 .67-.1.96-.26l1.88 1.88 1.27-1.27z"/></svg>
